src/actions/22/im-user-busy.svg

<svg xmlns="http://www.w3.org/2000/svg" viewBox="0 0 22 22">
 <g transform="translate(-421.71429-525.79071)" style="fill:#bf616a">
  <path d="m432.71429 528.79032a3.99999 4.00003 0 0 0 -4 4 3.99999 4.00003 0 0 0 4 4 3.99999 4.00003 0 0 0 4 -4 3.99999 4.00003 0 0 0 -4 -4m0 1a3 3.00003 0 0 1 3 3 3 3.00003 0 0 1 -3 3 3 3.00003 0 0 1 -3 -3 3 3.00003 0 0 1 3 -3"/>
  <path d="m12 13a7.99995 8.00003 0 0 0 -7.927734 7h1.00781A6.99996 7.00003 0 0 1 12 14a6.99996 7.00003 0 0 1 1 .08008v-1.00977A7.99995 8.00003 0 0 0 12 13" transform="translate(420.71429 524.79071)"/>
  <path d="M15.5 12A3.5 3.5 0 0 0 12 15.5 3.5 3.5 0 0 0 15.5 19 3.5 3.5 0 0 0 19 15.5 3.5 3.5 0 0 0 15.5 12M15 13H16V15H17V16H16 15V15 13" transform="translate(421.71429 525.79071)"/>
 </g>
</svg>

<svg viewBox="0 0 22 22" xmlns="http://www.w3.org/2000/svg">
 <g transform="translate(-421.71 -525.79)" fill="#bf616a">
  <path d="m432.71 528.79a4 4 0 0 0-4 4 4 4 0 0 0 4 4 4 4 0 0 0 4-4 4 4 0 0 0-4-4m0 1a3 3 0 0 1 3 3 3 3 0 0 1-3 3 3 3 0 0 1-3-3 3 3 0 0 1 3-3"/>
  <path transform="translate(420.71 524.79)" d="m12 13a8 8 0 0 0-7.9277 7h1.0078a7 7 0 0 1 6.9199-6 7 7 0 0 1 1 0.08008v-1.0098a8 8 0 0 0-1-0.07031"/>
  <path transform="translate(421.71 525.79)" d="m15.5 12a3.5 3.5 0 0 0-3.5 3.5 3.5 3.5 0 0 0 3.5 3.5 3.5 3.5 0 0 0 3.5-3.5 3.5 3.5 0 0 0-3.5-3.5m-0.5 1h1v2h1v1h-2v-3"/>
 </g>
</svg>
